icons/fill-new-office-doc-document-pen-edit.svg

<svg xmlns="http://www.w3.org/2000/svg" width="32px" height="32px" viewBox="0 0 32 32" version="1.1">
    <title>fill-new-office-doc-document-pen-edit</title>
    <g id="fill-new-office-doc-document-pen-edit" stroke-width="1" fill-rule="evenodd">
        <path d="M29.0665288,13.1759581 C29.5216346,13.4888433 29.6369272,14.111423 29.3240419,14.5665288 L18.3240419,30.5665288 C18.0111567,31.0216346 17.388577,31.1369272 16.9334712,30.8240419 C16.4783654,30.5111567 16.3630728,29.888577 16.6759581,29.4334712 L27.6759581,13.4334712 C27.9888433,12.9783654 28.611423,12.8630728 29.0665288,13.1759581 Z M27,2 C27.5522847,2 28,2.44771525 28,3 L28,9.431 L13.858,30 L5,30 C4.44771525,30 4,29.5522847 4,29 L4,3 C4,2.44771525 4.44771525,2 5,2 L27,2 Z M28,20.022 L28,29 C28,29.5522847 27.5522847,30 27,30 L21.14,30 L28,20.022 Z M15,14 L11,14 C10.4477153,14 10,14.4477153 10,15 C10,15.5522847 10.4477153,16 11,16 L15,16 C15.5522847,16 16,15.5522847 16,15 C16,14.4477153 15.5522847,14 15,14 Z M21,8 L11,8 C10.4477153,8 10,8.44771525 10,9 C10,9.55228475 10.4477153,10 11,10 L21,10 C21.5522847,10 22,9.55228475 22,9 C22,8.44771525 21.5522847,8 21,8 Z" id="&#24418;&#29366;" />
    </g>
</svg>

<svg xmlns="http://www.w3.org/2000/svg" viewBox="0 0 32 32"><path fill="currentColor" d="M29.067 13.176a1 1 0 0 1 .257 1.39l-11 16a1 1 0 1 1-1.648-1.133l11-16a1 1 0 0 1 1.39-.257M27 2a1 1 0 0 1 1 1v6.431L13.858 30H5a1 1 0 0 1-1-1V3a1 1 0 0 1 1-1zm1 18.022V29a1 1 0 0 1-1 1h-5.86zM15 14h-4a1 1 0 0 0 0 2h4a1 1 0 0 0 0-2m6-6H11a1 1 0 0 0 0 2h10a1 1 0 0 0 0-2"/></svg>
